assets/svg/instagram-mono.svg

<svg fill="none" height="24" viewBox="0 0 25 24" width="25" xmlns="http://www.w3.org/2000/svg" xmlns:xlink="http://www.w3.org/1999/xlink"><clipPath id="a"><path d="m2.5 2h20v20h-20z"/></clipPath><g clip-path="url(#a)"><path d="m12.5 3.8025c2.67 0 2.9867.01 4.0417.05833 2.71.12334 3.9758 1.40917 4.0991 4.09917.0484 1.05417.0575 1.37083.0575 4.0408 0 2.6709-.01 2.9867-.0575 4.0409-.1241 2.6875-1.3866 3.9758-4.0991 4.0991-1.055.0484-1.37.0584-4.0417.0584-2.67 0-2.98667-.01-4.04083-.0584-2.71667-.1241-3.97584-1.4158-4.09917-4.1-.04833-1.0541-.05833-1.37-.05833-4.0408 0-2.67.01083-2.98583.05833-4.04083.12417-2.68917 1.38667-3.97584 4.09917-4.09917 1.055-.0475 1.37083-.0575 4.04083-.0575zm0-1.8025c-2.71583 0-3.05583.01167-4.1225.06-3.63167.16667-5.65 2.18167-5.81667 5.81667-.04916 1.0675-.06083 1.4075-.06083 4.12333 0 2.7158.01167 3.0567.06 4.1233.16667 3.6317 2.18167 5.65 5.81667 5.8167 1.0675.0483 1.4075.06 4.12333.06 2.7158 0 3.0567-.0117 4.1233-.06 3.6284-.1667 5.6517-2.1817 5.8159-5.8167.0491-1.0666.0608-1.4075.0608-4.1233 0-2.71583-.0117-3.05583-.06-4.1225-.1633-3.62833-2.1808-5.65-5.8158-5.81667-1.0675-.04916-1.4084-.06083-4.1242-.06083zm0 4.865c-2.83583 0-5.135 2.29917-5.135 5.135 0 2.8358 2.29917 5.1358 5.135 5.1358 2.8358 0 5.135-2.2991 5.135-5.1358 0-2.83583-2.2992-5.135-5.135-5.135zm0 8.4683c-1.8408 0-3.33333-1.4916-3.33333-3.3333 0-1.8408 1.49253-3.33333 3.33333-3.33333s3.3333 1.49253 3.3333 3.33333c0 1.8417-1.4925 3.3333-3.3333 3.3333zm5.3383-9.8708c-.6633 0-1.2008.5375-1.2008 1.2s.5375 1.2 1.2008 1.2c.6625 0 1.1992-.5375 1.1992-1.2s-.5367-1.2-1.1992-1.2z" fill="#00005a"/></g></svg>

<svg width="25" height="24" viewBox="0 0 25 24" fill="none" xmlns="http://www.w3.org/2000/svg">
<g clip-path="url(#clip0_9_664)">
<path d="M12.5 3.8025C15.17 3.8025 15.4867 3.8125 16.5417 3.86083C19.2517 3.98417 20.5175 5.27 20.6408 7.96C20.6892 9.01417 20.6983 9.33083 20.6983 12.0008C20.6983 14.6717 20.6883 14.9875 20.6408 16.0417C20.5167 18.7292 19.2542 20.0175 16.5417 20.1408C15.4867 20.1892 15.1717 20.1992 12.5 20.1992C9.83 20.1992 9.51333 20.1892 8.45917 20.1408C5.7425 20.0167 4.48333 18.725 4.36 16.0408C4.31167 14.9867 4.30167 14.6708 4.30167 12C4.30167 9.33 4.3125 9.01417 4.36 7.95917C4.48417 5.27 5.74667 3.98333 8.45917 3.86C9.51417 3.8125 9.83 3.8025 12.5 3.8025ZM12.5 2C9.78417 2 9.44417 2.01167 8.3775 2.06C4.74583 2.22667 2.7275 4.24167 2.56083 7.87667C2.51167 8.94417 2.5 9.28417 2.5 12C2.5 14.7158 2.51167 15.0567 2.56 16.1233C2.72667 19.755 4.74167 21.7733 8.37667 21.94C9.44417 21.9883 9.78417 22 12.5 22C15.2158 22 15.5567 21.9883 16.6233 21.94C20.2517 21.7733 22.275 19.7583 22.4392 16.1233C22.4883 15.0567 22.5 14.7158 22.5 12C22.5 9.28417 22.4883 8.94417 22.44 7.8775C22.2767 4.24917 20.2592 2.2275 16.6242 2.06083C15.5567 2.01167 15.2158 2 12.5 2V2ZM12.5 6.865C9.66417 6.865 7.365 9.16417 7.365 12C7.365 14.8358 9.66417 17.1358 12.5 17.1358C15.3358 17.1358 17.635 14.8367 17.635 12C17.635 9.16417 15.3358 6.865 12.5 6.865ZM12.5 15.3333C10.6592 15.3333 9.16667 13.8417 9.16667 12C9.16667 10.1592 10.6592 8.66667 12.5 8.66667C14.3408 8.66667 15.8333 10.1592 15.8333 12C15.8333 13.8417 14.3408 15.3333 12.5 15.3333ZM17.8383 5.4625C17.175 5.4625 16.6375 6 16.6375 6.6625C16.6375 7.325 17.175 7.8625 17.8383 7.8625C18.5008 7.8625 19.0375 7.325 19.0375 6.6625C19.0375 6 18.5008 5.4625 17.8383 5.4625Z" fill="#00005A"/>
</g>
<defs>
<clipPath id="clip0_9_664">
<rect width="20" height="20" fill="white" transform="translate(2.5 2)"/>
</clipPath>
</defs>
</svg>
